X:08
T: Tipsy Gypsy
C: David Grisman
S: Jim Davis to CoMandoList TOW
L: 1/8
Q: 240
M: 4/4
K: F
"Pt A"\
z6 A^c |: "Dm"df e^c df e^c | d2 d2 z2 ba | _a=a _af af ed | "A7"^cd e2  z2 A=c |
^cg e=c ^cg e=c | ^cg e2 zg _ag | fg ed ^cd B^c |1 "Dm"AF D2 z2 A^c :|2 "Dm"AF D2 z2 D_G |
"Pt B"\
|: "Gm"GB AB ^cB A_G | GB AB ^cB A^C | "Dm"DF D^C DF D^C | DF D2 z2 D_G |1 "Gm"GB AB ^cB A_G |
GB AB ^cB AB | "E7"^cB AB dB AB | "A7"e6 D_G :|2 "Gm"GB AB ^cB AB | dB AB ef ef |
"E7"gf ef _af ea | "A7"a8 |
